resources/haticons/SVG/hdr_enhanced_select.svg

<!-- Generated by IcoMoon.io -->
<svg version="1.1" xmlns="http://www.w3.org/2000/svg" width="24" height="24" viewBox="0 0 24 24">
<title>hdr_enhanced_select</title>
<path d="M12 2.016q1.641 0 3 0.797t2.18 2.156 0.82 3.047q0 1.641-0.82 3t-2.18 2.18-3 0.82-3-0.82-2.18-2.18-0.82-3q0-1.688 0.82-3.047t2.18-2.156 3-0.797zM12 3.984q-1.125 0-2.016 0.539t-1.43 1.453-0.539 2.039q0 1.078 0.539 1.992t1.43 1.453 2.016 0.539 2.016-0.539 1.43-1.453 0.539-1.992q0-1.125-0.539-2.039t-1.43-1.453-2.016-0.539zM12.984 11.016h-1.969v-2.016h-2.016v-2.016h2.016v-1.969h1.969v1.969h2.016v2.016h-2.016v2.016zM24 20.016h-2.016v1.969h-1.5v-1.969h-1.969v-1.5h1.969v-2.016h1.5v2.016h2.016v1.5zM18 18.516q0 0.422-0.258 0.797t-0.633 0.609l0.891 2.063h-1.5l-0.891-1.969h-1.125v1.969h-1.5v-6h3.516q0.609 0 1.055 0.469t0.445 1.031v1.031zM16.5 18.516v-1.031h-2.016v1.031h2.016zM3.516 18v-2.016h1.5v6h-1.5v-2.484h-2.016v2.484h-1.5v-6h1.5v2.016h2.016zM9.984 15.984q0.609 0 1.055 0.469t0.445 1.031v3q0 0.609-0.445 1.055t-1.055 0.445h-3.469v-6h3.469zM9.984 20.484v-3h-1.969v3h1.969z"></path>
</svg>

<svg xmlns="http://www.w3.org/2000/svg" width="24" height="24"><path d="M12 2.016q1.641 0 3 .797t2.18 2.156.82 3.047q0 1.641-.82 3T15 13.196t-3 .82-3-.82-2.18-2.18-.82-3q0-1.688.82-3.047T9 2.813t3-.797zm0 1.968q-1.125 0-2.016.539t-1.43 1.453-.539 2.039q0 1.078.539 1.992t1.43 1.453 2.016.539 2.016-.539 1.43-1.453.539-1.992q0-1.125-.539-2.039t-1.43-1.453T12 3.984zm.984 7.032h-1.969V9H8.999V6.984h2.016V5.015h1.969v1.969H15V9h-2.016v2.016zm11.016 9h-2.016v1.969h-1.5v-1.969h-1.969v-1.5h1.969V16.5h1.5v2.016H24v1.5zm-6-1.5q0 .422-.258.797t-.633.609L18 21.985h-1.5l-.891-1.969h-1.125v1.969h-1.5v-6H16.5q.609 0 1.055.469T18 17.485v1.031zm-1.5 0v-1.031h-2.016v1.031H16.5zM3.516 18v-2.016h1.5v6h-1.5V19.5H1.5v2.484H0v-6h1.5V18h2.016zm6.468-2.016q.609 0 1.055.469t.445 1.031v3q0 .609-.445 1.055t-1.055.445H6.515v-6h3.469zm0 4.5v-3H8.015v3h1.969z"/></svg>
